svg/file/package_2_line.svg

<?xml version="1.0" encoding="UTF-8"?>
<svg width="24px" height="24px" viewBox="0 0 24 24" version="1.1" xmlns="http://www.w3.org/2000/svg" xmlns:xlink="http://www.w3.org/1999/xlink">
    <title>package_2_line</title>
    <g id="Icon" stroke="none" stroke-width="1" fill="none" fill-rule="evenodd">
        <g id="File" transform="translate(-624.000000, -384.000000)">
            <g id="package_2_line" transform="translate(624.000000, 384.000000)">
                <path d="M24,0 L24,24 L0,24 L0,0 L24,0 Z M12.5935,23.2578 L12.5819,23.2595 L12.5109,23.295 L12.4919,23.2987 L12.4767,23.295 L12.4057,23.2595 C12.3958,23.2564 12.387,23.259 12.3821,23.2649 L12.378,23.2758 L12.3609,23.7031 L12.3659,23.7235 L12.3769,23.7357 L12.4805,23.8097 L12.4953,23.8136 L12.5071,23.8097 L12.6107,23.7357 L12.6233,23.7197 L12.6267,23.7031 L12.6096,23.2758 C12.6076,23.2657 12.601,23.2593 12.5935,23.2578 Z M12.8584,23.1453 L12.8445,23.1473 L12.6598,23.2397 L12.6499,23.2499 L12.6472,23.2611 L12.6651,23.6906 L12.6699,23.7034 L12.6784,23.7105 L12.8793,23.8032 C12.8914,23.8069 12.9022,23.803 12.9078,23.7952 L12.9118,23.7812 L12.8777,23.1665 C12.8753,23.1546 12.8674,23.147 12.8584,23.1453 Z M12.143,23.1473 C12.1332,23.1424 12.1222,23.1453 12.1156,23.1526 L12.1099,23.1665 L12.0758,23.7812 C12.0751,23.7927 12.0828,23.8019 12.0926,23.8046 L12.1083,23.8032 L12.3092,23.7105 L12.3186,23.7024 L12.3225,23.6906 L12.3404,23.2611 L12.3372,23.2485 L12.3278,23.2397 L12.143,23.1473 Z" id="MingCute" fill-rule="nonzero"></path>
                <path d="M12.25,4.29904 C12.0953,4.20973 11.9047,4.20973 11.75,4.29904 L6.20583,7.49999 L8.01879,8.5467 L13.8174,5.20397 L12.25,4.29904 Z M15.8182,6.35912 L10.0196,9.70185 L11.7501,10.701 C11.9048,10.7903 12.0954,10.7903 12.2501,10.701 L17.7943,7.50002 L15.8182,6.35912 Z M18.7943,9.23208 L13.2501,12.433 C13.1686,12.4801 13.0851,12.5222 13,12.5593 L13,19.268 L18.5443,16.067 C18.699,15.9777 18.7943,15.8126 18.7943,15.634 L18.7943,9.23208 Z M11,19.268 L11,12.5593 C10.915,12.5221 10.8315,12.4801 10.7501,12.433 L5.20581,9.23203 L5.20581,15.634 C5.20581,15.8126 5.30111,15.9777 5.45581,16.067 L11,19.268 Z M10.75,2.56699 C11.5235,2.12041 12.4765,2.12041 13.25,2.56699 L19.5443,6.20097 C20.3178,6.64755 20.7943,7.47287 20.7943,8.36603 L20.7943,15.634 C20.7943,16.5271 20.3178,17.3525 19.5443,17.799 L13.25,21.433 C12.4765,21.8796 11.5235,21.8796 10.75,21.433 L4.45581,17.799 C3.68231,17.3525 3.20581,16.5271 3.20581,15.634 L3.20581,8.36603 C3.20581,7.47287 3.68231,6.64755 4.45581,6.20097 L10.75,2.56699 Z" id="形状" fill="#09244B"></path>
            </g>
        </g>
    </g>
</svg>

<svg xmlns="http://www.w3.org/2000/svg" width="24" height="24"><g fill="none" fill-rule="evenodd"><path d="M24 0v24H0V0h24ZM12.594 23.258l-.012.002-.071.035-.02.004-.014-.004-.071-.036c-.01-.003-.019 0-.024.006l-.004.01-.017.428.005.02.01.013.104.074.015.004.012-.004.104-.074.012-.016.004-.017-.017-.427c-.002-.01-.009-.017-.016-.018Zm.264-.113-.014.002-.184.093-.01.01-.003.011.018.43.005.012.008.008.201.092c.012.004.023 0 .029-.008l.004-.014-.034-.614c-.003-.012-.01-.02-.02-.022Zm-.715.002a.023.023 0 0 0-.027.006l-.006.014-.034.614c0 .012.007.02.017.024l.015-.002.201-.093.01-.008.003-.011.018-.43-.003-.012-.01-.01-.184-.092Z"/><path fill="#09244B" d="M12.25 4.299a.5.5 0 0 0-.5 0L6.206 7.5l1.813 1.047 5.798-3.343-1.567-.905Zm3.568 2.06L10.02 9.702l1.73.999a.5.5 0 0 0 .5 0L17.794 7.5l-1.976-1.14Zm2.976 2.873-5.544 3.201c-.081.047-.165.09-.25.126v6.709l5.544-3.201a.5.5 0 0 0 .25-.433V9.232ZM11 19.268v-6.709a2.5 2.5 0 0 1-.25-.126L5.206 9.232v6.402a.5.5 0 0 0 .25.433L11 19.268Zm-.25-16.701a2.5 2.5 0 0 1 2.5 0l6.294 3.634a2.5 2.5 0 0 1 1.25 2.165v7.268a2.5 2.5 0 0 1-1.25 2.165l-6.294 3.634a2.5 2.5 0 0 1-2.5 0l-6.294-3.634a2.5 2.5 0 0 1-1.25-2.165V8.366a2.5 2.5 0 0 1 1.25-2.165l6.294-3.634Z"/></g></svg>
